X: 1574
T: Jacko's 2nd Kiama Hornpipe
B: australian traditional tunes wiki
M:4/4
L:1/8
R: Step Dance
Q: 1/4=100
K:D
V:1 
E2|:"D"AF Adf2d2|"G"(3BcB GBg2e2|"A7"c2BA ag Bc|"D"de fdA2AF|
"D"A,D Fdf2d2|"Em"(3BcB BGg2e2|"A7"(3cdc BA ag Bc|"D"de "A7"fe "D"d2 (3BcB:|
|:"D"Aa fdA2^A2|"G"Bb geB2=c2|"A7"c2BA ag Bc|"D"df dBA2FG|
"D"Aa fdA2^A2|"G"Bb geB2=c2|"A7"(3BcB BA ag Bc|"D"d2"A7"f2"D"d2FG||
"D"Aa fd Aa fd|"G"db geB2=c2|"A7"(3cdc BA ag Bc|"D"de fdA2FG|
"D"Aa fd Aa fd|"G"db geB2=c2|"A7"(3cdc BA ag Bc|"D"d2"A7"f2"D"d2z2:|
% abcbook-tune_id 6342d53ae092181c10f746bb


% abcbook-boost 0
% abcbook-tablature 
% abcbook-transpose 
% abcbook-lastupdated 1665324371881
% abcbook-soundfonts 
% abcbook-repeats 1
% NFF Book 2013

